packages/icons/src/ruler-square.svg

<svg width="15" height="15" viewBox="0 0 15 15" fill="none" xmlns="http://www.w3.org/2000/svg">
  <path
    fill-rule="evenodd"
    clip-rule="evenodd"
    d="M0.5 0C0.223858 0 0 0.223858 0 0.5V14.5C0 14.7761 0.223858 15 0.5 15H4.5C4.77614 15 5 14.7761 5 14.5V5H14.5C14.7761 5 15 4.77614 15 4.5V0.5C15 0.223858 14.7761 0 14.5 0H0.5ZM1 4.07505L1 1H4.07502C4.07502 1 4.07502 1 4.07502 1L4.07505 4.07507L1 4.07505ZM0.999997 4.92505L1 14H4V12.925H2.75002C2.5153 12.925 2.32502 12.7348 2.32502 12.5C2.32502 12.2653 2.5153 12.075 2.75002 12.075H4V10.925H2.25002C2.0153 10.925 1.82502 10.7347 1.82502 10.5C1.82502 10.2653 2.0153 10.075 2.25002 10.075H4V8.92504L2.75002 8.92502C2.5153 8.92502 2.32502 8.73474 2.32502 8.50002C2.32503 8.26529 2.51531 8.07502 2.75003 8.07502L4 8.07504V6.92502L2.74999 6.925C2.51527 6.925 2.325 6.73472 2.325 6.5C2.325 6.26528 2.51529 6.075 2.75001 6.075L4 6.07502V4.92507L0.999997 4.92505ZM4.92505 4H6.075V2.75006C6.075 2.51534 6.26528 2.32506 6.5 2.32506C6.73472 2.32506 6.925 2.51534 6.925 2.75006V4H8.07502V2.75005C8.07502 2.51533 8.2653 2.32505 8.50002 2.32505C8.73474 2.32505 8.92502 2.51533 8.92502 2.75005V4H10.0751V2.25005C10.0751 2.01533 10.2653 1.82505 10.5001 1.82505C10.7348 1.82505 10.9251 2.01533 10.9251 2.25005V4H12.0751V2.75005C12.0751 2.51533 12.2654 2.32505 12.5001 2.32505C12.7348 2.32505 12.9251 2.51533 12.9251 2.75005V4H14V1H4.92502L4.92505 4Z"
    fill="currentColor"
  />
</svg>

<svg xmlns="http://www.w3.org/2000/svg" width="15" height="15" fill="none"><path fill="currentColor" fill-rule="evenodd" d="M.5 0a.5.5 0 0 0-.5.5v14a.5.5 0 0 0 .5.5h4a.5.5 0 0 0 .5-.5V5h9.5a.5.5 0 0 0 .5-.5v-4a.5.5 0 0 0-.5-.5zM1 4.075V1h3.075v3.075zm0 .85V14h3v-1.075H2.75a.425.425 0 1 1 0-.85H4v-1.15H2.25a.425.425 0 0 1 0-.85H4v-1.15H2.75a.425.425 0 1 1 0-.85H4v-1.15H2.75a.425.425 0 1 1 0-.85H4v-1.15zM4.925 4h1.15V2.75a.425.425 0 0 1 .85 0V4h1.15V2.75a.425.425 0 0 1 .85 0V4h1.15V2.25a.425.425 0 1 1 .85 0V4h1.15V2.75a.425.425 0 0 1 .85 0V4H14V1H4.925z" clip-rule="evenodd"/></svg>
